resources/haticons/SVG/dinner_dining.svg

<!-- Generated by IcoMoon.io -->
<svg version="1.1" xmlns="http://www.w3.org/2000/svg" width="24" height="24" viewBox="0 0 24 24">
<title>dinner_dining</title>
<path d="M3.984 16.5v-8.484h-0.984v-1.031h0.984v-0.984h-0.984v-0.984h0.984v-1.031h-0.984v-0.984h6q0.75 0.047 1.336 0.633t0.68 1.383h9.984v0.984h-9.984q-0.094 0.797-0.68 1.43t-1.336 0.586h-2.016v7.031q0.094 0 0.258-0.023t0.258-0.023q0.844 0 1.922 0.422 0.609-1.406 2.109-2.414t3-1.008q2.297 0 3.891 1.594t1.594 3.891q0 0.094-0.023 0.281t-0.023 0.234h-16.828q0.188-0.75 0.844-1.5zM6 15.234v-7.219h-0.984v7.688q0.703-0.375 0.984-0.469zM9 6.984v-0.984h-2.016v0.984h2.016zM9 3.984h-2.016v1.031h2.016v-1.031zM5.016 3.984v1.031h0.984v-1.031h-0.984zM5.016 6v0.984h0.984v-0.984h-0.984zM2.016 18.984h19.969l-1.969 2.016h-16.031z"></path>
</svg>

<svg xmlns="http://www.w3.org/2000/svg" width="24" height="24"><path d="M3.984 16.5V8.016H3V6.985h.984v-.984H3v-.984h.984V3.986H3v-.984h6q.75.047 1.336.633t.68 1.383H21v.984h-9.984q-.094.797-.68 1.43T9 8.018H6.984v7.031q.094 0 .258-.023t.258-.023q.844 0 1.922.422.609-1.406 2.109-2.414t3-1.008q2.297 0 3.891 1.594t1.594 3.891q0 .094-.023.281t-.023.234H3.142q.188-.75.844-1.5zM6 15.234V8.015h-.984v7.688q.703-.375.984-.469zm3-8.25V6H6.984v.984H9zm0-3H6.984v1.031H9V3.984zm-3.984 0v1.031H6V3.984h-.984zm0 2.016v.984H6V6h-.984zm-3 12.984h19.969L20.016 21H3.985z"/></svg>
